flaticon/transportation/truck-1.svg

<svg xmlns="http://www.w3.org/2000/svg" width="32" height="32" viewBox="0 0 24 24">
    <path d="M 23.132812 13.871094 L 17.683594 13.871094 C 19.410156 13.058594 21.082031 11.816406 22.261719 10.445312 C 23.796875 8.667969 24.339844 6.917969 23.792969 5.523438 C 23.144531 3.875 20.976562 2.894531 17.996094 2.894531 C 16.253906 2.894531 14.433594 3.234375 12.863281 3.851562 C 10.757812 4.679688 9.503906 5.835938 8.867188 7.085938 C 8.835938 7.082031 8.808594 7.078125 8.777344 7.078125 L 4.128906 7.078125 C 3.957031 7.078125 3.792969 7.167969 3.699219 7.316406 L 0.078125 12.996094 C 0.0273438 13.078125 0 13.175781 0 13.273438 L 0 18.113281 C 0 18.394531 0.230469 18.625 0.511719 18.625 L 2.824219 18.625 C 3.003906 20.023438 4.203125 21.105469 5.648438 21.105469 C 7.09375 21.105469 8.289062 20.023438 8.46875 18.625 L 15.042969 18.625 C 15.222656 20.023438 16.421875 21.105469 17.867188 21.105469 C 19.3125 21.105469 20.507812 20.023438 20.6875 18.625 L 23.132812 18.625 C 23.414062 18.625 23.640625 18.394531 23.640625 18.113281 L 23.640625 14.378906 C 23.640625 14.097656 23.414062 13.871094 23.132812 13.871094 Z M 9.289062 12.527344 C 9.632812 13.0625 10.054688 13.511719 10.542969 13.871094 L 9.289062 13.871094 Z M 13.238281 4.800781 C 14.691406 4.230469 16.378906 3.914062 17.996094 3.914062 C 20.503906 3.914062 22.359375 4.675781 22.839844 5.898438 C 23.238281 6.90625 22.746094 8.324219 21.488281 9.78125 C 20.238281 11.226562 18.398438 12.519531 16.558594 13.242188 C 15.546875 13.644531 14.59375 13.84375 13.726562 13.84375 C 11.824219 13.84375 10.390625 12.863281 9.6875 11.074219 C 8.644531 8.429688 9.972656 6.085938 13.238281 4.800781 Z M 4.410156 8.101562 L 6.191406 8.101562 L 6.191406 12.800781 L 1.414062 12.800781 Z M 5.648438 20.085938 C 4.640625 20.085938 3.824219 19.265625 3.824219 18.261719 C 3.824219 17.253906 4.640625 16.433594 5.648438 16.433594 C 6.65625 16.433594 7.472656 17.253906 7.472656 18.261719 C 7.472656 19.265625 6.65625 20.085938 5.648438 20.085938 Z M 17.867188 20.085938 C 16.859375 20.085938 16.042969 19.265625 16.042969 18.261719 C 16.042969 18.210938 16.042969 18.160156 16.046875 18.109375 C 16.125 17.171875 16.921875 16.433594 17.867188 16.433594 C 18.871094 16.433594 19.691406 17.253906 19.691406 18.261719 C 19.691406 19.265625 18.871094 20.085938 17.867188 20.085938 Z M 22.621094 17.601562 L 20.636719 17.601562 C 20.335938 16.347656 19.210938 15.414062 17.867188 15.414062 C 16.539062 15.414062 15.398438 16.347656 15.097656 17.601562 L 8.417969 17.601562 C 8.121094 16.347656 6.992188 15.414062 5.648438 15.414062 C 4.304688 15.414062 3.175781 16.347656 2.878906 17.601562 L 1.019531 17.601562 L 1.019531 13.824219 L 6.703125 13.824219 C 6.984375 13.824219 7.214844 13.59375 7.214844 13.3125 L 7.214844 8.101562 L 8.265625 8.101562 L 8.265625 14.378906 C 8.265625 14.664062 8.496094 14.890625 8.777344 14.890625 L 22.621094 14.890625 Z M 22.621094 17.601562"/>
</svg>

<svg xmlns="http://www.w3.org/2000/svg" width="32" height="32" viewBox="0 0 24 24">
    <path d="M23.133 13.871h-5.45c1.727-.812 3.399-2.055 4.579-3.426 1.535-1.777 2.078-3.527 1.531-4.922-.648-1.648-2.816-2.628-5.797-2.628-1.742 0-3.562.34-5.133.957-2.105.828-3.36 1.984-3.996 3.234-.031-.004-.058-.008-.09-.008H4.13a.511.511 0 0 0-.43.238l-3.62 5.68a.531.531 0 0 0-.079.277v4.84c0 .282.23.512.512.512h2.312a2.85 2.85 0 0 0 2.824 2.48 2.847 2.847 0 0 0 2.82-2.48h6.575a2.85 2.85 0 0 0 2.824 2.48 2.847 2.847 0 0 0 2.82-2.48h2.446a.51.51 0 0 0 .508-.512V14.38a.507.507 0 0 0-.508-.508zM9.289 12.527c.344.536.766.985 1.254 1.344H9.289zm3.95-7.726c1.452-.57 3.14-.887 4.757-.887 2.508 0 4.363.762 4.844 1.984.398 1.008-.094 2.426-1.352 3.883-1.25 1.446-3.09 2.739-4.93 3.461-1.011.403-1.964.602-2.831.602-1.903 0-3.336-.98-4.04-2.77-1.042-2.644.286-4.988 3.551-6.273zM4.41 8.1h1.781v4.7H1.414zm1.238 11.985a1.826 1.826 0 0 1 0-3.652 1.827 1.827 0 0 1 0 3.652zm12.22 0a1.826 1.826 0 0 1-1.825-1.824c0-.051 0-.102.004-.153a1.837 1.837 0 0 1 1.82-1.675 1.83 1.83 0 0 1 1.824 1.828c0 1.004-.82 1.824-1.824 1.824zm4.753-2.484h-1.984a2.852 2.852 0 0 0-2.77-2.188 2.865 2.865 0 0 0-2.77 2.188H8.419a2.849 2.849 0 0 0-2.77-2.188 2.849 2.849 0 0 0-2.77 2.188H1.02v-3.778h5.683c.281 0 .512-.23.512-.511V8.101h1.05v6.277c0 .285.231.512.512.512h13.844zm0 0"/>
</svg>
